svgs/solid/building.svg

<svg xmlns="http://www.w3.org/2000/svg" viewBox="0 0 384 512"><!--! Font Awesome Pro 6.0.0-alpha3 by @fontawesome - https://fontawesome.com License - https://fontawesome.com/license (Commercial License) --><path d="M336 .0145h-288c-26.51 0-48 21.49-48 48v432c0 17.67 14.33 32 32 32l112-.0073v-79.99c0-26.51 21.49-48.01 48-48.01s48 21.5 48 48.01v79.99l112 .0073c17.67 0 32-14.33 32-32v-432C384 21.5 362.5 .0145 336 .0145zM160 304c0 8.836-7.164 16-16 16h-32c-8.836 0-16-7.164-16-16v-32c0-8.838 7.164-16 16-16h32c8.836 0 16 7.167 16 16V304zM160 208c0 8.836-7.164 16-16 16h-32c-8.836 0-16-7.164-16-16v-32c0-8.838 7.164-16 16-16h32c8.836 0 16 7.167 16 16V208zM160 112c0 8.836-7.164 15.1-16 15.1h-32c-8.836 0-16-7.159-16-15.1v-32c0-8.838 7.164-16 16-16h32c8.836 0 16 7.162 16 16V112zM288 304c0 8.836-7.164 16-16 16h-32c-8.836 0-16-7.164-16-16v-32c0-8.838 7.164-16 16-16h32c8.836 0 16 7.167 16 16V304zM288 208c0 8.836-7.164 16-16 16h-32c-8.836 0-16-7.164-16-16v-32c0-8.838 7.164-16 16-16h32c8.836 0 16 7.167 16 16V208zM288 112c0 8.836-7.164 15.1-16 15.1h-32c-8.836 0-16-7.159-16-15.1v-32c0-8.838 7.164-16 16-16h32c8.836 0 16 7.162 16 16V112z"/></svg>

<svg xmlns="http://www.w3.org/2000/svg" viewBox="0 0 384 512"><!-- Font Awesome Pro 6.0.0-alpha2 by @fontawesome - https://fontawesome.com License - https://fontawesome.com/license (Commercial License) --><path d="M336 0H48C21.49 0 0 21.49 0 48V480C0 497.673 14.327 512 32 512H144V432C144 405.49 165.49 384 192 384S240 405.49 240 432V512H352C369.673 512 384 497.673 384 480V48C384 21.49 362.51 0 336 0ZM160 304C160 312.836 152.836 320 144 320H112C103.164 320 96 312.836 96 304V272C96 263.162 103.164 256 112 256H144C152.836 256 160 263.162 160 272V304ZM160 208C160 216.836 152.836 224 144 224H112C103.164 224 96 216.836 96 208V176C96 167.162 103.164 160 112 160H144C152.836 160 160 167.162 160 176V208ZM160 112C160 120.836 152.836 128 144 128H112C103.164 128 96 120.836 96 112V80C96 71.162 103.164 64 112 64H144C152.836 64 160 71.162 160 80V112ZM288 304C288 312.836 280.836 320 272 320H240C231.164 320 224 312.836 224 304V272C224 263.162 231.164 256 240 256H272C280.836 256 288 263.162 288 272V304ZM288 208C288 216.836 280.836 224 272 224H240C231.164 224 224 216.836 224 208V176C224 167.162 231.164 160 240 160H272C280.836 160 288 167.162 288 176V208ZM288 112C288 120.836 280.836 128 272 128H240C231.164 128 224 120.836 224 112V80C224 71.162 231.164 64 240 64H272C280.836 64 288 71.162 288 80V112Z"/></svg>
